packages/core/src/svgs/tokens/mono/FTC.svg

<svg width="24" height="24" viewBox="0 0 24 24" fill="none" xmlns="http://www.w3.org/2000/svg">
<path d="M21.3692 4.6375C21.261 6.18872 19.2316 8.53996 18.2705 9.65433L18.0799 9.87556C17.773 10.2343 17.4824 10.6005 17.2262 10.925C16.7668 11.5055 16.4149 11.9499 16.2654 11.9674C16.1906 11.9716 16.1155 11.9722 16.0405 11.9693C15.5355 11.963 14.4317 11.9506 14.2099 12.5123C14.0755 12.8249 15.8724 12.7449 15.8724 12.7449C15.8724 12.7449 12.9674 16.8561 12.7886 16.8829C12.7449 16.8892 12.588 16.8861 12.3574 16.8804C11.6549 16.8637 10.2681 16.8304 9.31187 17.0261C8.05182 17.2848 7.57807 17.9911 7.57807 17.9911C7.57807 17.9911 9.36554 18.1429 10.6255 18.2055C11.8773 18.2593 13.808 18.2867 13.808 18.2867C13.808 18.2867 12.4225 19.028 10.2236 18.9117C8.02495 18.7955 7.1487 18.6167 7.1487 18.6167C7.1487 18.6167 7.45308 19.4211 8.0612 19.8054C8.43056 20.0399 8.95306 20.2436 9.30122 20.3798C9.52493 20.4673 9.67616 20.5267 9.66989 20.5474C8.91615 20.5591 8.16885 20.4067 7.47996 20.1004C6.93996 19.8417 6.67995 19.4843 6.53183 19.2817C6.44433 19.1617 6.39684 19.0955 6.35371 19.1354C6.22872 19.2423 6.56809 20.0648 6.86309 20.3418C6.98559 20.4605 7.18745 20.6204 7.37433 20.7673C7.63558 20.9742 7.86808 21.1573 7.81057 21.1736C7.72119 21.2092 6.0231 20.5474 5.70997 20.163C5.5581 20.4848 3.95812 22.1654 3.89562 21.9867C3.86499 21.8992 4.14936 21.5417 4.4581 21.1536C4.78185 20.7473 5.13247 20.306 5.17373 20.1099C5.2631 19.7342 5.1556 19.1442 4.86998 19.1623C4.58374 19.1798 4.08311 20.2079 4.08311 20.2079C4.08311 20.2079 3.90437 19.8054 3.97623 19.3766C4.04749 18.9479 4.35124 18.6348 4.35124 18.6348C4.35124 18.6348 3.7525 17.9911 3.47562 17.7142C3.38261 17.6242 3.28716 17.5367 3.18937 17.4517C2.89687 17.1924 2.5675 16.8998 2.62688 16.7754C2.69813 16.6149 3.63624 17.1424 3.96687 17.3748C4.28873 17.5979 4.99498 18.2949 4.99498 18.2949C4.99498 18.2949 4.72623 17.428 4.52123 16.8473C4.44311 16.6274 4.3481 16.3973 4.26249 16.193C4.12311 15.8574 4.01248 15.5898 4.05623 15.5512C4.12812 15.4886 4.74436 16.3018 5.00373 16.7043C5.27247 17.106 5.69184 17.8842 5.69184 17.8842C5.69184 17.8842 5.6206 16.7937 5.70997 16.0874C5.79935 15.3724 6.10371 14.6574 6.24622 14.7024C6.31809 14.7293 6.35872 14.8879 6.42122 15.1343C6.48247 15.3762 6.56497 15.7017 6.71996 16.0699C7.03246 16.8024 7.24746 17.1424 7.3812 17.053C7.52432 16.9636 7.64995 16.0248 7.5687 14.6486C7.51976 13.8431 7.45432 13.0385 7.37245 12.2356C7.37245 12.2356 8.21244 11.3418 8.2662 11.3855C8.30369 11.4099 8.30995 11.8131 8.31557 12.273C8.32056 12.6793 8.32619 13.1299 8.35556 13.4061C8.41807 13.9962 8.58806 14.568 8.66806 14.568C8.74931 14.5592 9.12431 13.9424 9.36554 12.468C9.61549 10.9931 9.72312 10.2512 9.72312 10.2512C9.72312 10.2512 11.3143 8.76745 11.3768 8.78495C11.4081 8.79433 11.4406 9.00745 11.4767 9.25242C11.5125 9.48808 11.5518 9.75306 11.6 9.89364C11.6892 10.1887 11.8686 10.3224 11.8686 10.3224C11.8686 10.3224 12.2437 9.93812 12.3506 9.04433C12.3818 8.78495 12.405 8.57121 12.4236 8.39433C12.4699 7.96183 12.4925 7.74746 12.5562 7.61433C12.6456 7.40871 15.0054 5.5406 16.2749 4.57562C17.5436 3.61939 20.2611 1.94753 20.4486 2.00126C20.636 2.06377 21.4855 2.96564 21.3692 4.6375ZM9.40112 16.0437C9.40112 16.0437 12.6818 12.7724 14.1024 11.083C15.5331 9.39373 18.1423 5.61311 18.1423 5.61311C18.1423 5.61311 14.8536 9.22369 13.2267 11.1361C11.9048 12.7317 10.6293 14.365 9.40185 16.0342L9.40112 16.0437Z" fill="white"/>
</svg>

<svg xmlns="http://www.w3.org/2000/svg" width="24" height="24" fill="none" viewBox="0 0 24 24">
    <path fill="#fff" d="M21.37 4.638c-.109 1.55-2.138 3.902-3.1 5.016l-.19.222c-.307.358-.598.725-.854 1.049-.46.58-.811 1.025-.96 1.042q-.112.007-.225.002c-.505-.006-1.61-.018-1.831.543-.135.313 1.662.233 1.662.233s-2.905 4.111-3.083 4.138a5 5 0 0 1-.432-.003c-.702-.016-2.089-.05-3.045.146-1.26.259-1.734.965-1.734.965s1.788.152 3.048.215c1.251.053 3.182.08 3.182.08s-1.386.742-3.584.626-3.075-.295-3.075-.295.304.804.912 1.188c.37.235.892.439 1.24.575.224.087.375.147.369.167a5.2 5.2 0 0 1-2.19-.447c-.54-.258-.8-.616-.948-.818-.088-.12-.135-.186-.178-.147-.125.107.214.93.51 1.207.122.119.323.278.51.425.262.207.494.39.437.407-.09.035-1.788-.627-2.101-1.011-.152.322-1.752 2.002-1.814 1.824-.031-.088.253-.445.562-.833.324-.407.674-.848.716-1.044.09-.376-.018-.966-.304-.948s-.787 1.046-.787 1.046-.179-.403-.107-.831c.071-.43.375-.742.375-.742s-.598-.644-.875-.92a7 7 0 0 0-.287-.263c-.292-.26-.622-.552-.562-.677.071-.16 1.01.367 1.34.6.322.223 1.028.92 1.028.92s-.269-.867-.474-1.448c-.078-.22-.173-.45-.259-.654-.139-.336-.25-.603-.206-.642.072-.062.688.75.948 1.153.268.402.688 1.18.688 1.18s-.071-1.09.018-1.797c.09-.715.394-1.43.536-1.385.072.027.113.186.175.432.061.242.144.568.299.936.312.732.527 1.072.661.983.143-.09.269-1.028.188-2.404a59 59 0 0 0-.197-2.413s.84-.894.894-.85c.038.024.044.427.05.887.005.406.01.857.04 1.133.062.59.232 1.162.312 1.162.081-.009.456-.626.698-2.1.25-1.475.357-2.217.357-2.217s1.591-1.484 1.654-1.466c.031.01.064.222.1.467.035.236.075.501.123.642a.87.87 0 0 0 .269.428s.375-.384.482-1.278l.073-.65c.046-.432.069-.647.132-.78.09-.205 2.45-2.073 3.719-3.038C17.544 3.619 20.26 1.948 20.449 2c.187.063 1.036.965.92 2.637M9.4 16.044s3.28-3.272 4.701-4.961c1.431-1.69 4.04-5.47 4.04-5.47s-3.288 3.61-4.915 5.523a108 108 0 0 0-3.825 4.898z"/>
</svg>
